<?xml version="1.0" encoding="UTF-8"?>
<map version="1.10" tiledversion="1.12.2" orientation="orthogonal" renderorder="right-down" width="32" height="4" tilewidth="8" tileheight="8" infinite="0" nextlayerid="2" nextobjectid="1">
 <editorsettings>
  <export target="hud-map.json" format="zx-ide-map-tiled"/>
 </editorsettings>
 <tileset firstgid="1" name="hud-tiles" tilewidth="8" tileheight="8" tilecount="128" columns="32">
  <image source="hud-tiles.png" width="256" height="32"/>
 </tileset>
 <layer id="1" name="Capa de patrones 1" width="32" height="4">
  <data encoding="csv">
1,2,3,4,5,6,7,8,9,10,11,12,13,14,15,16,17,18,19,20,21,22,23,24,25,26,27,28,29,30,31,32,
33,34,35,36,37,0,0,0,0,0,43,44,45,46,47,48,49,50,51,52,53,54,0,0,0,0,0,60,61,62,63,64,
65,66,67,68,69,0,0,0,0,0,0,76,77,78,79,80,81,82,83,84,85,0,0,0,0,0,0,92,93,94,95,96,
97,98,99,100,101,102,103,104,105,106,107,108,109,110,111,112,113,114,115,116,117,118,119,120,121,122,123,124,125,126,127,128
</data>
 </layer>
</map>
